public/svgs/light/money-bills.svg

<svg xmlns="http://www.w3.org/2000/svg" viewBox="0 0 640 512"><!-- Font Awesome Pro 6.0.0-alpha2 by @fontawesome - https://fontawesome.com License - https://fontawesome.com/license (Commercial License) --><path d="M368 112C323.818 112 288 154.98 288 208S323.818 304 368 304C412.184 304 448 261.02 448 208S412.184 112 368 112ZM368 272C341.982 272 320 242.691 320 208S341.982 144 368 144C394.02 144 416 173.309 416 208S394.02 272 368 272ZM528 448H96C60.654 448 32 419.346 32 384V112C32 103.164 24.836 96 16 96S0 103.164 0 112V384C0 437.02 42.98 480 96 480H528C536.836 480 544 472.836 544 464S536.836 448 528 448ZM576 32H160C124.654 32 96 60.652 96 96V320C96 355.346 124.654 384 160 384H576C611.348 384 640 355.346 640 320V96C640 60.652 611.348 32 576 32ZM128 96C128 78.355 142.355 64 160 64H192C192 99.297 163.281 128 128 128V96ZM160 352C142.355 352 128 337.645 128 320V288C163.281 288 192 316.703 192 352H160ZM608 320C608 337.645 593.645 352 576 352H544C544 316.703 572.719 288 608 288V320ZM608 256C555.062 256 512 299.062 512 352H224C224 299.062 180.938 256 128 256V160C180.938 160 224 116.938 224 64H512C512 116.938 555.062 160 608 160V256ZM608 128C572.719 128 544 99.297 544 64H576C593.645 64 608 78.355 608 96V128Z"/></svg>

<svg xmlns="http://www.w3.org/2000/svg" viewBox="0 0 640 512"><!--! Font Awesome Pro 6.5.1 by @fontawesome - https://fontawesome.com License - https://fontawesome.com/license (Commercial License) Copyright 2023 Fonticons, Inc. --><path d="M576 64c17.7 0 32 14.3 32 32v32c-35.3 0-64-28.7-64-64h32zM224 64H512c0 53 43 96 96 96v96c-53 0-96 43-96 96H224c0-53-43-96-96-96V160c53 0 96-43 96-96zM128 288c35.3 0 64 28.7 64 64H160c-17.7 0-32-14.3-32-32V288zm416 64c0-35.3 28.7-64 64-64v32c0 17.7-14.3 32-32 32H544zM192 64c0 35.3-28.7 64-64 64V96c0-17.7 14.3-32 32-32h32zM160 32c-35.3 0-64 28.7-64 64V320c0 35.3 28.7 64 64 64H576c35.3 0 64-28.7 64-64V96c0-35.3-28.7-64-64-64H160zM368 272a64 64 0 1 1 0-128 64 64 0 1 1 0 128zm-96-64a96 96 0 1 0 192 0 96 96 0 1 0 -192 0zM32 112c0-8.8-7.2-16-16-16s-16 7.2-16 16V368c0 61.9 50.1 112 112 112H528c8.8 0 16-7.2 16-16s-7.2-16-16-16H112c-44.2 0-80-35.8-80-80V112z"/></svg>
